X: 17301
T: Heuston Fox, The
R: jig
M: 6/8
K: Amajor
|GBG AGE -|EEB, EFG|AFD - DFA|ded cBA|
GBG AGE -|EEB, EFG|AFD - DFA|1 BGE Bz A:|2 BGE EGB||
e-ee BeA|GBe gec|d-dd AdG|FAd fdB|
e-ee BeA|GBe gec|dBA G/A/BG|1 AGE EGB:|2 AGE BA=A||

